X:1
T:Waking Out of Silence
T:Grant C. Tullar & Isaac H. Meredith
T:Waking Out of Silence
T:Public Domain
T:Public Domain
T:Public Domain
T:Public Domain
C:Grant C. Tullar & Isaac H. Meredith
Z:Public Domain
%%score ( 1 2 ) ( 3 4 )
L:1/8
M:4/4
K:G
V:1 treble 
V:2 treble 
V:3 bass 
V:4 bass 
V:1
 DEFG AGFG | B2 B2 B4 | BGFG BGFG | c6 z2 | DEFG A^GAB | c2 c2 c4 | dA^GA dAGA | B6 z2 | %8
w: 1.~Wak- ing out of si- lence rang a|heav’n- ly song,|Dark- ness giv- ing place to light di-|vine;|Thro’ the gates of Heav- en came an|an- gel throng,|Hast- ing down to join in chant sub-|lime;|
w: 2.~Wak- ing out of si- lence came an|an- gel voice,|“Fear not,” thus doth Hea- ven com- fort|send,|Fear may well give place to joy, O|earth, re- joice!|An- gel tongues an- nounce your might- y|Friend.|
w: 3.~Wak- ing out of si- lence comes a|voice di- vine,|Clouds and dark- ness lift, and are no|more;|Heav’n- ly light and bless- ing o’er our|path- way shine,|Je- sus speaks to help us o’er and|o’er.|
 DEFG AGFG | B2 B2 B4 | BB^AB edcB | E6 z2 | GGFG AGFG | [DGB]2 [EGe]2 [DGd]4 | BA^GA BAGA | %15
w: Won- der- ful the mu- sic o- ver|Beth- le’em’s hill!|Won- der- ful the light that shone a-|round!|“Glo- ry in the high- est,” and on|earth good- will!|Earth, at- tend the glad, an- gel- ic|
w: Shep- herds heard the mess- age, we are|tell- ing now;|Sag- es fol- lowed far the King to|see.|Come, oh come, and in His roy- al|pre- sence bow!|Hail the day He came our King to|
w: He, Who came at- tend- ed by the|an- gel choir,|He, Who low- ly lay in yon- der|stall!|Reign- eth now the King of kings, our|hearts’ De- sire,|Fair- est of ten thou- sand! Lord of|
 (z2 [Fc]2 [FB]2 [FAd]2) ||[M:3/4]"^Refrain" (z2 [DG]2 [DG]2) | z2 [DE^G]2 [DEGB]2 | %18
w: |||
w: ||* lent|
w: |||
 z2 [A,C]2 [A,C]2 | E2 [A,CF]2 [A,CG]2 | (z2 [CDF]2 [CDF]2) | z2 [CDF]2 [CDFA]2 | %22
w: ||||
w: |* more Is||* scene|
w: ||||
 z2 [G,B,]2 [G,B,]2 | D2 [B,DE]2 [B,DF]2 | (z2 [B,D]2) [B,DE]2 | (z2 [B,D]2) [B,DE]2 | %26
w: ||||
w: |* song; Still|* to|* it|
w: ||||
 z2 [CD]2 [CD]2 | z2 [CD]2 [DFA]2 | z2 [DFA]2 [DFA]2 | z2 [DFA]2 [DF^A]2 | z2 [DGB]2 [DGB]2 | %31
w: |||||
w: |* eth|* To|* it||
w: |||||
 z2 [DGB]2 D2 | (z2 [DG]2 [DG]2) | (z2 [DE^G]2) [DEGB]2 | z2 [A,C]2 [A,C]2 | E2 [A,CF]2 [A,CG]2 | %36
w: |||||
w: * is||* dark-||* may reign|
w: |||||
 (z2 [CDF]2 [CDF]2) | (z2 [CDF]2) [CDFA]2 | z2 [G,B,]2 [G,B,]2 | z2 [G,B,]2 D2 | [CE]4 [DF]2 | %41
w: |||||
w: |* that||* side|plain; That|
w: |||||
 [DG]4 [DA]2 | [DB]4 [Ge]2 | ([Gd]2 [DB]2) [DG]2 | [^CE]6 | [CA]6 | [B,G]6- | [B,G]4 z2 |] %48
w: |||||||
w: light di-|vine, To|faith * doth|shine,|So|bright,||
w: |||||||
V:2
 x8 | x8 | x8 | x8 | x8 | x8 | x8 | x8 | x8 | x8 | x8 | x8 | x8 | x8 | x8 | d8 ||[M:3/4] B6 | %17
w: |||||||||||||||sound!||
w: |||||||||||||||be.|Si-|
w: |||||||||||||||all!||
 c4 x2 | E6- | x6 | A6 | G4 x2 | D6- | x6 | G4 x2 | G4 x2 | F6 | F4 x2 | d4 x2 | d4 x2 | d6- | %31
w: ||||||||||||||
w: no|||the|of|that||faith|ring-||clear,|love|still||
w: ||||||||||||||
 (d4 D2) | B6 | c4 x2 | E6- | x6 | A6 | B4 x2 | D6 | (D4 D2) | x6 | x6 | x6 | x6 | x6 | x6 | x6 | %47
w: ||||||||||||||||
w: dear, *|No|ness|||O’er|hill-||and *||||||||
w: ||||||||||||||||
 x6 |] %48
w: |
w: |
w: |
V:3
 G,,2 [D,G,B,]2 B,,2 [D,G,B,]2 | G,,2 [D,G,B,]2 (B,,2 [D,G,B,]2) | G,,2 [D,G,B,]2 B,,2 [D,G,B,]2 | %3
 (A,,2 [D,F,C]2 [D,F,C]2 [D,F,C]2) | D,,2 [D,F,C]2 F,,2 [D,F,C]2 | D,,2 [D,F,C]2 (F,,2 [D,F,C]2) | %6
 D,,2 [D,F,C]2 F,,2 [D,F,C]2 | (G,,2 [D,G,B,]2 [D,G,B,]2 [D,G,B,]2) | %8
 G,,2 [D,G,B,]2 B,,2 [D,G,B,]2 | G,,2 [D,G,B,]2 (B,,2 [D,G,B,]2) | E,,2 [E,^G,D]2 ^G,,2 [E,G,D]2 | %11
 (A,,2 [E,A,C]2 [E,A,C]2 [E,A,C]2) | [^C,E,^A,]2 z2 [C,E,A,]2 z2 | [D,G,B,]2 [C,G,C]2 [B,,G,B,]4 | %14
 A,,2 [E,G,^C]2 A,,2 [E,G,C]2 | (D,,2 E2 D2 C2) || G,,4 z2 | E,,4 z2 | C,4 z2 | A,,4 z2 | D,4 z2 | %21
 D,,4 z2 | G,,4 z2 | B,,4 z2 | G,,4 z2 | B,,4 z2 | A,,4 z2 | D,,4 z2 | A,,4 z2 | D,,4 z2 | %30
 G,,4 z2 | D,,4 z2 | G,,4 z2 | E,,4 z2 | A,,4 z2 | C,4 z2 | D,4 z2 | D,,4 z2 | G,,4 z2 | %39
 D,,4 [B,,G,]2 | [C,G,]4 [C,A,]2 | [B,,G,]4 [D,F,]2 | G,4 [G,C]2 | (B,2 G,2) [B,,G,]2 | [A,,G,]6 | %45
 [D,F,]6 | [G,,G,]6- | [G,,G,]4 z2 |] %48
V:4
 x8 | x8 | x8 | x8 | x8 | x8 | x8 | x8 | x8 | x8 | x8 | x8 | x8 | x8 | x8 | x8 || x6 | x6 | x6 | %19
 x6 | x6 | x6 | x6 | x6 | x6 | x6 | x6 | x6 | x6 | x6 | x6 | x6 | x6 | x6 | x6 | x6 | x6 | x6 | %38
 x6 | x6 | x6 | x6 | G,4 x2 | G,4 x2 | x6 | x6 | x6 | x6 |] %48

